X: 1
T: Polkett efter Finnmark Hellstr\"om
O: Sweden
N: A variant of Jenny Lind's polka.
M: 2/4
L: 1/16
K: G
|: "G"G2B2 "D7"A2c2 | "G"B2d2 d^cd2 |1,3 "D7"A2c2 cBc2 | "G"G2B2 BAB2 \
                                   :|2,4 "D7"e3d dcAF | "G"A2G2 G4 :|
|: "C"g4 "D7"f3e | "G"e2d2 B3d |1,3 "D7"d2c2 A3c | "G"e2d2 B3d \
                              :|2,4 "G"d2dB "D7"c2AF | "G"A2G2 G4 :|
